X: 50
T: VALSE QUEBECOISE
M: 3/4
L: 1/8
Q:1/4=60
K:C 
|:G/2F/2EC/2E/2 G/2c/2ed/2c/2|d/2e/2f/2a/2a/2f/2 e/2f/2A3/2c/2|B/2A/2G/2
F/2D/2E/2 F/2G/2BA|1GE3/2F/2 G/2A/2G3/2A/2:|2Bcc/2d/2 c/2B/2c3/2G/2|!
A/2G/2 FF/2G/2 A/2G/2BA|GEE/2G/2 A/2G/2cB|cd3BA|GE3CD|
EFF/2G/2 A/2G/2BA|GEE/2G/2 A/2G/2cB|cDD/2E/2 F/2G/2EC|DCC/2D/2 C/2B,/2C2
|
G/2F/2|
